X: 38072
T: Spirit, The
R: waltz
M: 3/4
K: Gmajor
B BA|G3 G Bd|g3 a/g/ fg|e3 f/e/ dc|d3 B BA|G3 G Bc|d4 Bd|e2 d2 B2|A3 B BA|
G3 G Bd|g3 a/g/ fg|e3 e dc|d3 B BA|G3 G Bc|d3 d BG|A2 BAGF|G3 g gf|
g4g/a/b/g/|a4 gf|g2 f2 e2|d4 Bd|e3 d e/f/g|{d}B4 Bd|e2 d2 B2|A3 g gf|
g4g/a/b/g/|a4 gf|g2 f2 e2|d4 GA|B g3 fe|d B3 G/A/B|A2 BAGF|G4z2|

